svgs/sharp-light/floppy-disk.svg

<svg xmlns="http://www.w3.org/2000/svg" viewBox="0 0 448 512"><!--! Font Awesome Pro 6.6.0 by @fontawesome - https://fontawesome.com License - https://fontawesome.com/license (Commercial License) Copyright 2024 Fonticons, Inc. --><path d="M32 480L0 480l0-32L0 64 0 32l32 0 304 0L448 144l0 304 0 32-32 0L32 480zm384-32l0-290.7L322.7 64 320 64l0 112 0 16-16 0L80 192l-16 0 0-16L64 64 32 64l0 384 384 0zM96 64l0 96 192 0 0-96L96 64zm80 256a48 48 0 1 0 96 0 48 48 0 1 0 -96 0zm48 80a80 80 0 1 1 0-160 80 80 0 1 1 0 160z"/></svg>

<svg xmlns="http://www.w3.org/2000/svg" viewBox="0 0 448 512"><!--! Font Awesome Pro 6.4.2 by @fontawesome - https://fontawesome.com License - https://fontawesome.com/license (Commercial License) Copyright 2023 Fonticons, Inc. --><path d="M32 480H0V448 64 32H32 336L448 144V448v32H416 32zm384-32V157.3L322.7 64H320V176v16H304 80 64V176 64H32V448H416zM96 64v96H288V64H96zm80 256a48 48 0 1 0 96 0 48 48 0 1 0 -96 0zm48 80a80 80 0 1 1 0-160 80 80 0 1 1 0 160z"/></svg>
